X:343
T:Bouzer Castle.
T:See a better at p 117.
C:John Malchair's Third Collection of Tunes
F:https://www.vwml.org/record/Malchair/3619/p34
F:www.vwml.org/topics/historic-dance-and-tune-books/Malchair
Z:Eric Conrad Jan 2020
N:NB1 No repeats in MS.  Assuming parts are repeated.
N:NB6 MS has dotted half.
M:6/8 % original in 6/4.
L:1/8
R:jig
K:D
P:A
|: "_NB1"D | F2A (AF)A | B2d dBd | F2A (AF)D | D3 A,3 |
F2A AFA | B2d (dB)d | (fd)f (ec)A | d3 "_NB6"D2 :|
P:B
|: d | f2a afa | c2e (ec)e | F2A AFD | E3 C3 |
F2A (AF)A | B2d dBd | faf ecA | d3 D2 :|



